X: 27
T:Keel Row
% Nottingham Music Database
S:Kevin Briggs
M:4/4
L:1/8
R:Hornpipe
K:A
ed|"A"c2Ac "D"d2Bd|"A"c2Ac "E7"BGEd|"A"c2Ac "D"d2Bd|\
"A"c/2A3/2"E7"B/2G3/2 "A"A2:|:
AB|"A"c/2e3/2ea "D"f2ed|"A"c2Ac "E7"BGEd|"A"c/2e3/2ea "D"f2ed|\
"A"c/2A3/2"E7"B/2G3/2 "A"A2:|


